icon-svg/spotpear-cube.svg

<svg xmlns="http://www.w3.org/2000/svg" viewBox="0 0 24 24"><path fill="#44739e" d="M13.663 12.333c.217-.011.244-.421.247-.6s-.014-.584-.232-.574-.245.42-.247.6.016.584.232.574m1.356-.068c.216-.011.248-.419.253-.594s-.008-.582-.226-.572-.25.419-.253.594.005.583.226.572m.6.412a.15.15 0 0 0-.157.133 1.32 1.32 0 0 1-1.14 1.159 1.11 1.11 0 0 1-1.105-1.063.132.132 0 0 0-.153-.123.17.17 0 0 0-.111.188 1.373 1.373 0 0 0 1.363 1.308 1.644 1.644 0 0 0 1.408-1.427.146.146 0 0 0-.105-.175m2.794-6.016h-.065l-8.792.872a.66.66 0 0 0-.593.681l.366 9.633a.66.66 0 0 0 .757.626l8.426-1.271a.655.655 0 0 0 .56-.653V7.32a.66.66 0 0 0-.659-.659m-1.914 5.714a2.625 2.625 0 0 1-2.201 2.633 2.195 2.195 0 0 1-2.1-2.415 2.515 2.515 0 0 1 2.2-2.632 2.16 2.16 0 0 1 2.101 2.414m3.15-8.626a1.27 1.27 0 0 0-.864-.34h-.109l-10.162.866a1.335 1.335 0 0 0-1.224 1.39l.566 15.014a1.54 1.54 0 0 0 .528 1.064.98.98 0 0 0 .753.253l10.362-1.717a.586.586 0 0 0 .49-.576L20.057 4.7a1.27 1.27 0 0 0-.408-.951m-.285 12.803a.946.946 0 0 1-.809.942L10.13 18.77a1 1 0 0 1-.142.011.95.95 0 0 1-.951-.915l-.366-9.633a.95.95 0 0 1 .856-.982l8.792-.873a.95.95 0 0 1 1.045.947ZM7.115 5.672a1.51 1.51 0 0 1 1.382-1.566l10.161-.867a1.5 1.5 0 0 1 .3.006l-1.23-.527-1.435-.571a2 2 0 0 0-.607-.14 1.4 1.4 0 0 0-.277 0l-10.162.866a1.5 1.5 0 0 0-.223.037 1.426 1.426 0 0 0-1.081 1.438l.54 14.292a1.23 1.23 0 0 0 .613 1.015 1 1 0 0 0 .122.1l2.811 1.868a1.7 1.7 0 0 1-.347-.935Z"/></svg>

<?xml version="1.0" encoding="UTF-8"?>
<svg width="24px" fill="#44739e" height="24px" viewBox="0 0 24 24" version="1.1" xmlns="http://www.w3.org/2000/svg" xmlns:xlink="http://www.w3.org/1999/xlink">
            <path d="m 13.665,12.333 c 0.217,-0.011 0.244,-0.421 0.247,-0.6 0.003,-0.179 -0.014,-0.584 -0.232,-0.574 -0.218,0.01 -0.245,0.42 -0.247,0.6 -0.002,0.18 0.016,0.584 0.232,0.574 z m 1.356,-0.068 c 0.216,-0.011 0.248,-0.419 0.253,-0.594 0.005,-0.175 -0.008,-0.582 -0.226,-0.572 -0.218,0.01 -0.25,0.419 -0.253,0.594 -0.003,0.175 0.005,0.583 0.226,0.572 z m 0.6,0.412 a 0.149,0.149 0 0 0 -0.157,0.132 1.323,1.323 0 0 1 -1.14,1.159 1.112,1.112 0 0 1 -1.105,-1.063 0.132,0.132 0 0 0 -0.153,-0.122 0.173,0.173 0 0 0 -0.111,0.187 1.373,1.373 0 0 0 1.363,1.308 1.644,1.644 0 0 0 1.408,-1.427 v 0 a 0.146,0.146 0 0 0 -0.105,-0.174 z m 2.793,-6.015 c -0.022,0 -0.043,0 -0.065,0 L 9.559,7.534 A 0.66,0.66 0 0 0 8.966,8.215 l 0.366,9.63 a 0.659,0.659 0 0 0 0.757,0.626 L 18.513,17.2 v 0 a 0.655,0.655 0 0 0 0.56,-0.652 V 7.321 A 0.659,0.659 0 0 0 18.414,6.662 Z M 16.5,12.375 a 2.624,2.624 0 0 1 -2.2,2.632 2.194,2.194 0 0 1 -2.1,-2.414 2.514,2.514 0 0 1 2.2,-2.632 2.159,2.159 0 0 1 2.1,2.414 z m 3.15,-8.624 a 1.269,1.269 0 0 0 -0.864,-0.34 c -0.036,0 -0.073,0 -0.109,0 L 8.517,4.277 A 1.335,1.335 0 0 0 7.294,5.666 L 7.86,20.677 A 1.537,1.537 0 0 0 8.387,21.74 0.979,0.979 0 0 0 9.14,21.993 L 19.5,20.277 a 0.586,0.586 0 0 0 0.49,-0.576 l 0.068,-15 A 1.27,1.27 0 0 0 19.65,3.751 Z m -0.285,12.8 a 0.946,0.946 0 0 1 -0.809,0.941 l -8.423,1.276 A 0.981,0.981 0 0 1 9.991,18.779 0.952,0.952 0 0 1 9.04,17.864 L 8.674,8.234 A 0.952,0.952 0 0 1 9.53,7.252 l 8.79,-0.873 a 0.952,0.952 0 0 1 1.045,0.947 z M 7.119,5.673 A 1.51,1.51 0 0 1 8.5,4.108 L 18.659,3.241 a 1.53,1.53 0 0 1 0.3,0.006 L 17.729,2.72 16.294,2.149 a 2.079,2.079 0 0 0 -0.606,-0.14 1.421,1.421 0 0 0 -0.277,0 L 5.251,2.875 A 1.482,1.482 0 0 0 5.028,2.912 v 0 A 1.426,1.426 0 0 0 3.948,4.35 l 0.539,14.288 a 1.232,1.232 0 0 0 0.613,1.015 0.831,0.831 0 0 0 0.122,0.1 L 8.033,21.62 A 1.676,1.676 0 0 1 7.686,20.686 Z"/>

</svg>
